src/assets/images/purchase-inquiries/home.svg

<?xml version="1.0" encoding="UTF-8"?>
<svg enable-background="new 0 0 486.988 486.988" version="1.1" viewBox="0 0 486.99 486.99" xml:space="preserve" xmlns="http://www.w3.org/2000/svg">
	<path d="m16.822 284.97h39.667v158.67c0 9.35 7.65 17 17 17h116.17c9.35 0 17-7.65 17-17v-116.17h70.833v116.17c0 9.35 7.65 17 17 17h110.5c9.35 0 17-7.65 17-17v-158.67h48.167c6.8 0 13.033-4.25 15.583-10.483s1.133-13.6-3.683-18.417l-221.57-224.68c-6.517-6.517-17.283-6.8-23.8-0.283l-231.48 224.68c-5.1 4.817-6.517 12.183-3.967 18.7 2.55 6.516 8.783 10.483 15.583 10.483zm231.2-217.6 181.33 183.6h-24.367c-9.35 0-17 7.65-17 17v158.67h-76.5v-116.17c0-9.35-7.65-17-17-17h-104.83c-9.35 0-17 7.65-17 17v116.17h-82.167v-158.67c0-9.35-7.65-17-17-17h-14.733l189.27-183.6z"/>
</svg>

<?xml version="1.0" encoding="iso-8859-1"?>
<!-- Generator: Adobe Illustrator 18.1.1, SVG Export Plug-In . SVG Version: 6.00 Build 0)  -->
<svg version="1.1" id="Capa_1" xmlns="http://www.w3.org/2000/svg" xmlns:xlink="http://www.w3.org/1999/xlink" x="0px" y="0px"
	 viewBox="0 0 486.988 486.988" style="enable-background:new 0 0 486.988 486.988;" xml:space="preserve">
<g>
	<g>
		<path d="M16.822,284.968h39.667v158.667c0,9.35,7.65,17,17,17h116.167c9.35,0,17-7.65,17-17V327.468h70.833v116.167
			c0,9.35,7.65,17,17,17h110.5c9.35,0,17-7.65,17-17V284.968h48.167c6.8,0,13.033-4.25,15.583-10.483
			c2.55-6.233,1.133-13.6-3.683-18.417L260.489,31.385c-6.517-6.517-17.283-6.8-23.8-0.283L5.206,255.785
			c-5.1,4.817-6.517,12.183-3.967,18.7C3.789,281.001,10.022,284.968,16.822,284.968z M248.022,67.368l181.333,183.6h-24.367
			c-9.35,0-17,7.65-17,17v158.667h-76.5V310.468c0-9.35-7.65-17-17-17H189.656c-9.35,0-17,7.65-17,17v116.167H90.489V267.968
			c0-9.35-7.65-17-17-17H58.756L248.022,67.368z"/>
	</g>
</g>
<g>
</g>
<g>
</g>
<g>
</g>
<g>
</g>
<g>
</g>
<g>
</g>
<g>
</g>
<g>
</g>
<g>
</g>
<g>
</g>
<g>
</g>
<g>
</g>
<g>
</g>
<g>
</g>
<g>
</g>
</svg>
